!!!COM: Gabriel Faure/
!!!CNT: Francais
!!!TXO: Francais
!!!OTL: "L'hiver a cesse/"
!!!LYR: Verlaine
!!!OPR: La bonne chanson
!!!OPS: Op. 61
!!!ONM: No. 9
!!!ENC: Emily Thomas
!!!YOR: CD Sheet Music French Art Songs, The Ultimate Collection
!!!YOR: CD Sheet Music, LLC 2003
!!!ODT: 1898/
!!NB: Vocal melody and text encoded.
**kern	**silbe
=1	=1
*clefG2	*
*k[b-e-]	*
*M4/4	*
*MM[Allegro]	*
1r	.
=2	=2
1r	.
=3	=3
1r	.
=4	=4
1r	.
=5	=5
1r	.
=6	=6
1r	.
=7	=7
1r	.
=8	=8
1r	.
=9	=9
4r	.
8r	.
{8b-	{L'hi-
[2ee-	-ver
=10	=10
2ee-]	|
4.dd	a
8cc	ces-
=11	=11
[2b-	-se/
8b-]}	|}
8r	.
4r	.
=12	=12
{8b-	{la
8b-	lu-
[2dd	-mie\re
8dd]	|
8dd	est
=13	=13
4cc	tie\-
[4b-	-de
8b-]}	|}
8r	.
8r	.
{8b-	{Et
=14	=14
4dd-	dan-
[4a-	-se,
8a-]}	|}
8r	.
8r	.
{8g#	{du
=15	=15
4.c#	sol
8en	au
8g#	fir-
8cc#	-ma-
4een	-ment
=16	=16
*M3/2	*
[2ff	clair,
4ff_	|
8ff]}	|}
8r	.
8r	.
{8cc	{Il
[4ff	faut
=17	=17
*M4/4	*
12ff	|
12ee-	que
12dd	le
12cc	coeur
12b-	le
12cc	plus
4.dd	tris-
8b-	-te
=18	=18
4cc	ce\-
[4b-	-de
8b-]}	|}
8r	.
{8b-	{A
8cc	l'im-
=19	=19
4.dd-	-men-
8b-	-se
4.ee-	joie
8cc-	e-
=20	=20
4ff	-par-
2gg	|
8.a	-se
16a	dans
=21	=21
[2b-	l'air.
4b-]}	|}
4r	.
=22	=22
1r	.
=23	=23
{8b-	J'ai
8b-	de-
8cc-	-puis
8cc-	un
4b-	an
8b-	le
8dd-	prin-
=24	=24
8ccn	-temps
8b-	dans
2a-	l'a^-
8a-}	-me}
8r	.
=25	=25
{8dd-	{Et
8b--	le
8cc-	vert
8dd-	re-
4.ff-	-tour
8ee-	du
=26	=26
4dd-	doux
8.cc-	flo-
16cc-	-re/-
4b-}	-al,}
8r	.
{8b-	{ain-
=27	=27
4a-	-si
8g-	qu'u-
8a-	-ne
4.b-	flamme
8b-	en-
=28	=28
4cc	-toure
8b-	u-
8cc	-ne
4dd-	flam-
4dd-}	-me,}
=29	=29
4r	.
{4.b-	{Met
8b-	de
8an	l'i-
8an	-de/-
=30	=30
2dd-	-al
8cc#	sur
8cc#	mon
8b#	i-
8b#	-de/-
=31	=31
[2een	-al.
4een_	|
8een]}	|}
8r	.
=32	=32
4r	.
{8cc	{Le
8cc	ciel
4.cc	bleu
8cc	pro-
=33	=33
4.g	-longe,
8a	ex-
4b-	-hausse
8.cc	et
16cc	cou-
=34	=34
2dd	ron-
8a}	-ne}
8r	.
{8bn	{L'im-
8bn	-mu-
=35	=35
8cc	-able
8cc	a-
8dd	-zur
8dd	ou\
[4een	rit
12een]	|
12dd	mon
12cc	a-
=36	=36
*M3/2	*
2bn}	-mour.}
4r	.
{8een	{La
8een	sai-
4.dd#	-son
8g#	est
=37	=37
2g#	bel-
8g#}	-le}
8r	.
{8een	{et
8een	ma
4.dd	part
8f#	est-
=38	=38
2g#	bon-
4a-}	-ne}
4r	.
{8b-	{Et
8b-	tous
8dd	mes
8cc	es-
=39	=39
*M4/4	*
4een	-poirs
8dd	ont
8dd	en-
4.ffn	-fin
8ee-	leur
=40	=40
[2dd	tour.
8dd]}	|}
8r	.
8r	.
{8b-	{Que
=41	=41
[2dd	vien-
12dd]	|
12cc	-ne
12b-	l'e/-
[4b-	-te/!
=42	=42
8b-]}	|}
8r	.
8r	.
{8b-	{que
4dd	vien-
8dd	-nent
8dd	en-
=43	=43
4ee-	-co-
8b-	-re
8b-	l'au-
[4cc	-tomne
12cc]	|
12g	et
12a	l'hi-
=44	=44
[2dd	-ver!
8dd]}	|}
8r	.
8r	.
{8dd	{Et
=45	=45
8cc	cha-
8bn	|
8a	-que
8g	sai-
4f#	-son
8bn	me
8bn	se-
=46	=46
8cc#	-ra
8a	char-
[4bn	-man-
8bn]	|
8cc#	|
8dd	|
8een	|
=47	=47
4ff#	|
2f#	|
4een	|
=48	=48
[2ee-	-te,
4ee-_	|
8ee-]}	|}
8r	.
=49	=49
2r	.
4r	.
{6e-	{o^
12ee-	|
=50	=50
*M9/8	*
*MM[Andante moderato]	*
[2.dd-	Toi
8ee-]	|
8dd	que
8b-	de/-
=51	=51
2.a	-co-
4.g}	-re}
=52	=52
4r	.
8r	.
{4b-	{Cet-
8b-	-te
4cc	fan-
8dd	-tai-
=53	=53
2.cc	-sie
4b-	et
8ff	|
=54	=54
*M3/4	*
*MM[L'istesso tempo]	*
4.ff	cet-
8dd-	|
8b-	-te
8g	rai-
=55	=55
[2.f	-son!
=56	=56
*M9/8	*
2.f_	|
8f]}	|}
8r	.
8r	.
==	==
*-	*-
